epam-assets/icon-sources/18/navigation-arrows_expand.svg

<svg width="18" height="18" viewBox="0 0 18 18" fill="none" xmlns="http://www.w3.org/2000/svg">
<g id="18/navigation-arrows_expand">
<path id="icon" fill-rule="evenodd" clip-rule="evenodd" d="M7.5 15.75V14.25H4.8075L8.1825 10.875L7.125 9.8175L3.75 13.1925V10.5H2.25V15.75H7.5ZM10.875 8.1825L14.25 4.8075V7.5H15.75V2.25H10.5V3.75H13.1925L9.8175 7.125L10.875 8.1825Z" fill="#6C6F80"/>
</g>
</svg>

<svg xmlns="http://www.w3.org/2000/svg" width="18" height="18" fill="none" viewBox="0 0 18 18">
  <path fill="#6C6F80" fill-rule="evenodd" d="M7.5 15.75v-1.5H4.808l3.374-3.375-1.057-1.057-3.375 3.375V10.5h-1.5v5.25H7.5Zm3.375-7.568 3.375-3.375V7.5h1.5V2.25H10.5v1.5h2.693L9.818 7.125l1.057 1.057Z" clip-rule="evenodd"/>
</svg>
